src/assets/daws/tools.svg

<svg fill="none" height="172" viewBox="0 0 172 172" width="172" xmlns="http://www.w3.org/2000/svg"><path d="m82.7936 33.0374c-7.4532.5568-13.9144 2.2394-20.2666 5.3019-12.3657 5.9555-22.2873 16.7893-27.0303 29.5357-2.4078 6.4518-3.4362 12.1895-3.4362 19.1376-.0121 3.8009.1452 5.7619.7139 9.1392.2783 1.6462 1.1978 5.6282 1.4398 6.1972.0605.158-.0363.218-.5687.327-.3509.073-.8711.145-1.1373.158l-.5082.036 3.3153 7.505c1.827 4.128 3.3273 7.553 3.3515 7.614.0121.048.5687-.049 1.2221-.218.6533-.17 1.2462-.315 1.3309-.315.0726 0 .4598.448.847.993 4.5131 6.282 10.587 11.766 17.3143 15.603 6.2555 3.571 13.4426 5.871 21.0168 6.73 2.5893.291 8.6149.291 11.2042 0 12.6919-1.44 23.7149-6.706 32.5839-15.567 2.359-2.36 4.961-5.471 6.292-7.517l.193-.302 1.319.351c.726.181 1.331.29 1.343.23.024-.049 1.525-3.474 3.352-7.602l3.315-7.505-.508-.036c-.266-.013-.775-.085-1.113-.158l-.63-.121.182-.569c.363-1.186 1.004-4.0185 1.295-5.7374.58-3.3772.726-5.2051.726-9.236s-.146-5.8466-.726-9.2359c-1.61-9.466-5.844-18.4719-12.148-25.8801-1.452-1.6946-4.283-4.5272-5.977-5.9797-8.337-7.1055-18.21-11.3664-29.2933-12.6495-1.6334-.1937-7.5137-.339-9.0141-.23zm8.5302 5.9071c9.6192 1.1621 17.9802 4.6846 25.3482 10.7006 1.767 1.4405 4.743 4.3941 6.256 6.1977 6.279 7.4687 9.909 15.9299 11.119 25.9042.303 2.4573.303 8.0739 0 10.5312-.363 2.9657-1.198 7.2145-1.524 7.7468-.23.363-2.832-1.7065-5.227-4.1759-1.706-1.7673-2.856-3.123-4.586-5.4108-3.013-4.0067-4.731-6.8029-7.55-12.3227-1.138-2.2273-2.517-4.7693-3.061-5.6408-6.837-10.9912-15.8265-16.7531-26.099-16.7531s-19.2624 5.7619-26.0986 16.7531c-.5445.8715-1.9238 3.4135-3.0612 5.6408-1.1373 2.2273-2.5046 4.7572-3.0248 5.6287-3.9929 6.6214-9.1472 12.819-13.007 15.6152-1.2704.9075-1.2825.9075-1.4519.2905-1.9964-7.4202-2.19-15.5667-.5324-23.0354 2.2505-10.1438 7.5501-19.1013 15.3663-25.9648 7.8647-6.9118 17.7258-11.0637 28.2402-11.8748 1.9602-.1452 7.0178-.0484 8.8932.1695zm-3.5694 34.6439c3.2911.9321 7.2839 4.9146 11.3735 11.3543 1.0891 1.7189 2.4681 4.1156 3.8111 6.6092 5.614 10.4461 12.753 18.1931 21.114 22.8781.629.351 1.174.666 1.198.678.181.145-2.638 3.547-4.707 5.665-8.857 9.078-20.4 14.138-33.1526 14.562-13.4788.424-26.5825-4.902-36.0564-14.683-1.8754-1.937-4.7551-5.411-4.5857-5.544.0242-.012.5686-.327 1.1978-.678 8.3608-4.685 15.4995-12.432 21.1136-22.8781 3.6541-6.815 6.6426-11.1969 9.7401-14.2836 2.3473-2.3484 4.4284-3.6073 6.4732-3.922.5566-.0726 1.7424.0363 2.4804.2421z" fill="#9ca3af"/></svg>

<svg width="172" height="172" viewBox="0 0 172 172" fill="none" xmlns="http://www.w3.org/2000/svg">
<path d="M82.7936 33.0374C75.3404 33.5942 68.8792 35.2768 62.527 38.3393C50.1613 44.2948 40.2397 55.1286 35.4967 67.875C33.0889 74.3268 32.0605 80.0645 32.0605 87.0126C32.0484 90.8135 32.2057 92.7745 32.7744 96.1518C33.0527 97.798 33.9722 101.78 34.2142 102.349C34.2747 102.507 34.1779 102.567 33.6455 102.676C33.2946 102.749 32.7744 102.821 32.5082 102.834L32 102.87L35.3153 110.375C37.1423 114.503 38.6426 117.928 38.6668 117.989C38.6789 118.037 39.2355 117.94 39.8889 117.771C40.5422 117.601 41.1351 117.456 41.2198 117.456C41.2924 117.456 41.6796 117.904 42.0668 118.449C46.5799 124.731 52.6538 130.215 59.3811 134.052C65.6366 137.623 72.8237 139.923 80.3979 140.782C82.9872 141.073 89.0128 141.073 91.6021 140.782C104.294 139.342 115.317 134.076 124.186 125.215C126.545 122.855 129.147 119.744 130.478 117.698L130.671 117.396L131.99 117.747C132.716 117.928 133.321 118.037 133.333 117.977C133.357 117.928 134.858 114.503 136.685 110.375L140 102.87L139.492 102.834C139.226 102.821 138.717 102.749 138.379 102.676L137.749 102.555L137.931 101.986C138.294 100.8 138.935 97.9675 139.226 96.2486C139.806 92.8714 139.952 91.0435 139.952 87.0126C139.952 82.9817 139.806 81.166 139.226 77.7767C137.616 68.3107 133.382 59.3048 127.078 51.8966C125.626 50.202 122.795 47.3694 121.101 45.9169C112.764 38.8114 102.891 34.5505 91.8077 33.2674C90.1743 33.0737 84.294 32.9284 82.7936 33.0374V33.0374ZM91.3238 38.9445C100.943 40.1066 109.304 43.6291 116.672 49.6451C118.439 51.0856 121.415 54.0392 122.928 55.8428C129.207 63.3115 132.837 71.7727 134.047 81.747C134.35 84.2043 134.35 89.8209 134.047 92.2782C133.684 95.2439 132.849 99.4927 132.523 100.025C132.293 100.388 129.691 98.3185 127.296 95.8491C125.59 94.0818 124.44 92.7261 122.71 90.4383C119.697 86.4316 117.979 83.6354 115.16 78.1156C114.022 75.8883 112.643 73.3463 112.099 72.4748C105.262 61.4836 96.2725 55.7217 86 55.7217C75.7275 55.7217 66.7376 61.4836 59.9014 72.4748C59.3569 73.3463 57.9776 75.8883 56.8402 78.1156C55.7029 80.3429 54.3356 82.8728 53.8154 83.7443C49.8225 90.3657 44.6682 96.5633 40.8084 99.3595C39.538 100.267 39.5259 100.267 39.3565 99.65C37.3601 92.2298 37.1665 84.0833 38.8241 76.6146C41.0746 66.4708 46.3742 57.5133 54.1904 50.6498C62.0551 43.738 71.9162 39.5861 82.4306 38.775C84.3908 38.6298 89.4484 38.7266 91.3238 38.9445V38.9445ZM87.7544 73.5884C91.0455 74.5205 95.0383 78.503 99.1279 84.9427C100.217 86.6616 101.596 89.0583 102.939 91.5519C108.553 101.998 115.692 109.745 124.053 114.43C124.682 114.781 125.227 115.096 125.251 115.108C125.432 115.253 122.613 118.655 120.544 120.773C111.687 129.851 100.144 134.911 87.3914 135.335C73.9126 135.759 60.8089 130.433 51.335 120.652C49.4596 118.715 46.5799 115.241 46.7493 115.108C46.7735 115.096 47.3179 114.781 47.9471 114.43C56.3079 109.745 63.4466 101.998 69.0607 91.5519C72.7148 84.7369 75.7033 80.355 78.8008 77.2683C81.1481 74.9199 83.2292 73.661 85.274 73.3463C85.8306 73.2737 87.0164 73.3826 87.7544 73.5884Z" fill="#9CA3AF"/>
</svg>
